sprites/streets-v8/_svg/playground-11.svg

<?xml version="1.0" encoding="UTF-8" standalone="no"?>
<svg
   xmlns:dc="http://purl.org/dc/elements/1.1/"
   xmlns:cc="http://creativecommons.org/ns#"
   xmlns:rdf="http://www.w3.org/1999/02/22-rdf-syntax-ns#"
   xmlns:svg="http://www.w3.org/2000/svg"
   xmlns="http://www.w3.org/2000/svg"
   id="svg2"
   width="19"
   height="19"
   viewBox="0 0 19 19"
   version="1.1">
  <metadata
     id="metadata14">
    <rdf:RDF>
      <cc:Work
         rdf:about="">
        <dc:format>image/svg+xml</dc:format>
        <dc:type
           rdf:resource="http://purl.org/dc/dcmitype/StillImage" />
      </cc:Work>
    </rdf:RDF>
  </metadata>
  <defs
     id="defs12" />
  <ellipse
     id="ellipse4"
     ry="9.5"
     rx="9.5"
     cy="9.5"
     cx="9.5"
     style="fill:#ffffff;stroke:none;" />
  <ellipse
     id="ellipse6"
     rx="8.5"
     ry="8.5"
     cy="9.5"
     cx="9.5"
     style="fill:#7e9a4c;stroke:none;" />
  <g
     id="g8"
     transform="translate(4,4)">
    <metadata     id="metadata4147"><rdf:RDF><cc:Work         rdf:about=""><dc:format>image/svg+xml</dc:format><dc:type           rdf:resource="http://purl.org/dc/dcmitype/StillImage" /><dc:title /></cc:Work></rdf:RDF></metadata><defs     id="defs4145" /><path     style="color:#000000;font-style:normal;font-variant:normal;font-weight:normal;font-stretch:normal;font-size:medium;line-height:normal;font-family:sans-serif;text-indent:0;text-align:start;text-decoration:none;text-decoration-line:none;text-decoration-style:solid;text-decoration-color:#000000;letter-spacing:normal;word-spacing:normal;text-transform:none;direction:ltr;block-progression:tb;writing-mode:lr-tb;baseline-shift:baseline;text-anchor:start;white-space:normal;shape-padding:0;clip-rule:nonzero;display:inline;overflow:visible;visibility:visible;opacity:1;isolation:auto;mix-blend-mode:normal;color-interpolation:sRGB;color-interpolation-filters:linearRGB;solid-color:#000000;solid-opacity:1;fill:#ffffff;fill-opacity:1;fill-rule:nonzero;stroke:none;stroke-width:1.50000012;stroke-linecap:round;stroke-linejoin:round;stroke-miterlimit:4;stroke-dasharray:none;stroke-dashoffset:0;stroke-opacity:1;marker:none;color-rendering:auto;image-rendering:auto;shape-rendering:auto;text-rendering:auto;enable-background:accumulate"     d="m 3,1 -2,1.5 0,7 C 1,9.5 1,10 1.5,10 2,10 2,9.5 2,9.5 L 2,9 4,9 4,9.5 C 4,9.5 4,10 4.5,10 5,10 5,9.5 5,9.5 l 0,-3 C 5.487815,6.5 5.72397,6.6254583 5.976562,6.8535156 6.229155,7.0815729 6.468051,7.453089 6.734375,7.890625 7.000699,8.328161 7.293259,8.8315189 7.767578,9.2597656 8.241898,9.6880123 8.928112,10 9.75,10 L 10,10 10,8.5 9.75,8.5 C 9.262185,8.5 9.02603,8.3745417 8.773437,8.1464844 8.520845,7.9184271 8.281949,7.546911 8.015625,7.109375 7.749301,6.671839 7.456741,6.1684811 6.982422,5.7402344 6.508102,5.3119877 5.821888,5 5,5 L 5,2.5 Z M 3,3 C 3.552285,3 4,3.4477152 4,4 4,4.5522848 3.552285,5 3,5 2.447715,5 2,4.5522848 2,4 2,3.4477152 2.447715,3 3,3 Z M 2,6 4,6 4,8 2,8 Z"     id="path5096" />
  </g>
</svg>

<?xml version="1.0" encoding="utf-8"?>
<!-- Generator: Adobe Illustrator 17.1.0, SVG Export Plug-In . SVG Version: 6.00 Build 0)  -->
<!DOCTYPE svg PUBLIC "-//W3C//DTD SVG 1.1//EN" "http://www.w3.org/Graphics/SVG/1.1/DTD/svg11.dtd">
<svg version="1.1"
	 id="svg2" xmlns:svg="http://www.w3.org/2000/svg" xmlns:cc="http://creativecommons.org/ns#" xmlns:dc="http://purl.org/dc/elements/1.1/" xmlns:rdf="http://www.w3.org/1999/02/22-rdf-syntax-ns#"
	 xmlns="http://www.w3.org/2000/svg" xmlns:xlink="http://www.w3.org/1999/xlink" x="0px" y="0px" width="19px" height="19px"
	 viewBox="0 0 19 19" enable-background="new 0 0 19 19" xml:space="preserve">
<ellipse id="ellipse4" fill="#FFFFFF" cx="9.5" cy="9.5" rx="9.5" ry="9.5"/>
<ellipse id="ellipse6" fill="#7E9A4C" cx="9.5" cy="9.5" rx="8.5" ry="8.5"/>
<g id="g8" transform="translate(4,4)">
	<path id="path5096" fill="#FFFFFF" d="M3,1L1,2.5v7c0,0,0,0.5,0.5,0.5S2,9.5,2,9.5V9h2v0.5c0,0,0,0.5,0.5,0.5S5,9.5,5,9.5v-3
		c0.5,0,0.7,0.1,1,0.4c0.3,0.2,0.5,0.6,0.8,1s0.6,0.9,1,1.4C8.3,9.7,9,10,9.8,10H10V8.5H9.8c-0.5,0-0.7-0.1-1-0.4
		C8.5,7.9,8.3,7.5,8,7.1S7.5,6.2,7,5.7C6.5,5.3,5.8,5,5,5V2.5L3,1z M3,3c0.6,0,1,0.4,1,1S3.6,5,3,5S2,4.6,2,4S2.4,3,3,3z M2,6h2v2H2
		V6z"/>
</g>
</svg>
